_includes/icons/ios-tags.svg

<svg fill="#666" height="50" viewBox="0 0 50 50" width="50" xmlns="http://www.w3.org/2000/svg"><path d="m25.125 2c-.300781.003906-.601562.023438-.90625.0625-.613281.078125-1.28125.277344-1.8125.8125l-19.625 19.625c-1.019531 1.019531-1.019531 2.699219 0 3.71875l5.6875 5.71875c.046875.046875.101563.089844.15625.125.015625.015625.046875.015625.0625.03125l.03125.03125c.027344.027344.035156.066406.0625.09375l15 15c1.019531 1.019531 2.699219 1.019531 3.71875 0l19.625-19.625c.527344-.527344.734375-1.203125.8125-1.8125s.0625-1.210937.0625-1.78125v-.125c0-.09375 0-.230469 0-.40625 0-.113281 0-.324219 0-.46875 0-.296875 0-.566406 0-.96875 0-1.195312 0-2.808594 0-4.40625 0-3.195312 0-6.394531 0-6.46875 0-1.734375-1.425781-3.15625-3.15625-3.15625h-2.84375v-2.84375c0-1.734375-1.421875-3.15625-3.15625-3.15625h-12.84375c-.277344 0-.574219-.003906-.875 0zm.03125 2h.84375 12.84375c.652344 0 1.15625.503906 1.15625 1.15625v2.84375h-3.75c-.039062-.042969-.082031-.082031-.125-.125-.582031-.582031-1.355469-.875-2.125-.875s-1.542969.292969-2.125.875c-.042969.042969-.085937.082031-.125.125-.488281-.003906-1.007812-.003906-1.53125.0625-.613281.078125-1.28125.277344-1.8125.8125l-19.625 19.625c-.15625.15625-.296875.320313-.40625.5l-4.1875-4.1875c-.257812-.257812-.253906-.652344 0-.90625l19.625-19.625c.105469-.105469.304688-.199219.6875-.25.191406-.023437.402344-.03125.65625-.03125zm6 6h13.6875c.652344 0 1.15625.503906 1.15625 1.15625v6.46875 4.40625 1.4375.40625.09375.03125c0 .605469.019531 1.152344-.03125 1.53125s-.140625.546875-.25.65625l-19.625 19.625c-.257812.257813-.652344.253906-.90625 0l-15-15c-.257812-.257812-.253906-.652344 0-.90625l19.625-19.625c.105469-.105469.304688-.199219.6875-.25.191406-.023437.402344-.03125.65625-.03125zm8.84375 3c-.769531 0-1.542969.292969-2.125.875-1.164062 1.164063-1.164062 3.085938 0 4.25 1.164063 1.164063 3.085938 1.164063 4.25 0 1.164063-1.164062 1.164063-3.085937 0-4.25-.582031-.582031-1.355469-.875-2.125-.875zm0 2c.253906 0 .519531.082031.71875.28125.398438.398438.398438 1.039063 0 1.4375-.398437.398438-1.039062.398438-1.4375 0-.398437-.398437-.398437-1.039062 0-1.4375.199219-.199219.464844-.28125.71875-.28125z"/></svg>

<svg xmlns="http://www.w3.org/2000/svg" viewBox="0 0 50 50" width="50" height="50" fill="#666"><path d="M 25.125 2 C 24.824219 2.003906 24.523438 2.023438 24.21875 2.0625 C 23.605469 2.140625 22.9375 2.339844 22.40625 2.875 L 2.78125 22.5 C 1.761719 23.519531 1.761719 25.199219 2.78125 26.21875 L 8.46875 31.9375 C 8.515625 31.984375 8.570313 32.027344 8.625 32.0625 C 8.640625 32.078125 8.671875 32.078125 8.6875 32.09375 C 8.699219 32.105469 8.707031 32.113281 8.71875 32.125 C 8.746094 32.152344 8.753906 32.191406 8.78125 32.21875 L 23.78125 47.21875 C 24.800781 48.238281 26.480469 48.238281 27.5 47.21875 L 47.125 27.59375 C 47.652344 27.066406 47.859375 26.390625 47.9375 25.78125 C 48.015625 25.171875 48 24.570313 48 24 L 48 23.875 C 48 23.78125 48 23.644531 48 23.46875 C 48 23.355469 48 23.144531 48 23 C 48 22.703125 48 22.433594 48 22.03125 C 48 20.835938 48 19.222656 48 17.625 C 48 14.429688 48 11.230469 48 11.15625 C 48 9.421875 46.574219 8 44.84375 8 L 42 8 L 42 5.15625 C 42 3.421875 40.578125 2 38.84375 2 L 26 2 C 25.722656 2 25.425781 1.996094 25.125 2 Z M 25.15625 4 C 25.410156 4 25.703125 4 26 4 L 38.84375 4 C 39.496094 4 40 4.503906 40 5.15625 L 40 8 L 36.25 8 C 36.210938 7.957031 36.167969 7.917969 36.125 7.875 C 35.542969 7.292969 34.769531 7 34 7 C 33.230469 7 32.457031 7.292969 31.875 7.875 C 31.832031 7.917969 31.789063 7.957031 31.75 8 C 31.261719 7.996094 30.742188 7.996094 30.21875 8.0625 C 29.605469 8.140625 28.9375 8.339844 28.40625 8.875 L 8.78125 28.5 C 8.625 28.65625 8.484375 28.820313 8.375 29 L 4.1875 24.8125 C 3.929688 24.554688 3.933594 24.160156 4.1875 23.90625 L 23.8125 4.28125 C 23.917969 4.175781 24.117188 4.082031 24.5 4.03125 C 24.691406 4.007813 24.902344 4 25.15625 4 Z M 31.15625 10 L 44.84375 10 C 45.496094 10 46 10.503906 46 11.15625 C 46 11.21875 46 14.429688 46 17.625 C 46 19.222656 46 20.835938 46 22.03125 C 46 22.628906 46 23.121094 46 23.46875 C 46 23.644531 46 23.78125 46 23.875 C 46 23.921875 46 23.945313 46 23.96875 C 46 23.992188 46 24 46 24 C 46 24.605469 46.019531 25.152344 45.96875 25.53125 C 45.917969 25.910156 45.828125 26.078125 45.71875 26.1875 L 26.09375 45.8125 C 25.835938 46.070313 25.441406 46.066406 25.1875 45.8125 L 10.1875 30.8125 C 9.929688 30.554688 9.933594 30.160156 10.1875 29.90625 L 29.8125 10.28125 C 29.917969 10.175781 30.117188 10.082031 30.5 10.03125 C 30.691406 10.007813 30.902344 10 31.15625 10 Z M 40 13 C 39.230469 13 38.457031 13.292969 37.875 13.875 C 36.710938 15.039063 36.710938 16.960938 37.875 18.125 C 39.039063 19.289063 40.960938 19.289063 42.125 18.125 C 43.289063 16.960938 43.289063 15.039063 42.125 13.875 C 41.542969 13.292969 40.769531 13 40 13 Z M 40 15 C 40.253906 15 40.519531 15.082031 40.71875 15.28125 C 41.117188 15.679688 41.117188 16.320313 40.71875 16.71875 C 40.320313 17.117188 39.679688 17.117188 39.28125 16.71875 C 38.882813 16.320313 38.882813 15.679688 39.28125 15.28125 C 39.480469 15.082031 39.746094 15 40 15 Z"/></svg>
